X: 5650
T: Buttermilk Mary
R: jig
M: 6/8
K: Amajor
cAE FEC|EAc ecA|def edc|cBB Bed|
cea ecA|daf ecA|dfd ced|cAA A2:|
eaa agf|ecA Ace|fbb b2 a|gee efg|
aba gag|fgf efg|aec Bed|cAA A2:|

